Catalina-light/actions/16/snap-nodes-smooth.svg

<svg xmlns="http://www.w3.org/2000/svg" width="16" height="16" viewBox="0 0 16 16">
 <defs>
  <style id="current-color-scheme" type="text/css">
   .ColorScheme-Text { color:#5c616c; } .ColorScheme-Highlight { color:#5294e2; }
  </style>
 </defs>
 <path style="fill:currentColor" class="ColorScheme-Text" d="M 1.0195312 1.5 A 0.50005 0.50005 0 0 0 0.96875 1.5019531 A 0.50005 0.50005 0 0 0 0.93554688 2.4980469 C 0.93554688 2.4980469 3.5980531 2.8748925 6.0019531 4.0078125 L 6.0019531 6.0019531 L 8.8085938 6.0019531 C 9.3046338 6.5797831 9.6577056 7.2386406 9.7910156 7.9941406 C 10.039996 9.4050406 9.5586481 11.255353 7.6113281 13.689453 A 0.50005 0.50005 0 0 0 8.0019531 14.501953 C 11.620953 14.501953 13.572309 13.167363 14.537109 11.789062 C 15.501909 10.410763 15.501953 9.0019531 15.501953 9.0019531 A 0.50005 0.50005 0 1 0 14.501953 9.0019531 C 14.501953 9.0019531 14.501997 10.093144 13.716797 11.214844 C 13.031447 12.193914 11.535962 13.076859 8.9765625 13.318359 C 10.408062 11.212759 11.044891 9.3491656 10.775391 7.8222656 C 10.556791 6.5835656 9.8788631 5.5820906 9.0019531 4.7753906 L 9.0019531 3.0019531 L 6.203125 3.0019531 C 3.670125 1.8505531 1.0683594 1.5058594 1.0683594 1.5058594 A 0.50005 0.50005 0 0 0 1.0195312 1.5 z"/>
</svg>

<svg width="16" height="16" viewBox="0 0 16 16" xmlns="http://www.w3.org/2000/svg">
<defs>
<style id="current-color-scheme" type="text/css">.ColorScheme-Text { color:#5c616c; } .ColorScheme-Highlight { color:#5294e2; }</style>
</defs>
<path class="ColorScheme-Text" d="m1.0195 1.5a0.50005 0.50005 0 0 0-0.050781 0.0019531 0.50005 0.50005 0 0 0-0.033203 0.99609s2.6625 0.37685 5.0664 1.5098v1.9941h2.8066c0.49604 0.57783 0.84911 1.2367 0.98242 1.9922 0.24898 1.4109-0.23237 3.2612-2.1797 5.6953a0.50005 0.50005 0 0 0 0.39062 0.8125c3.619 0 5.5704-1.3346 6.5352-2.7129 0.9648-1.3783 0.96484-2.7871 0.96484-2.7871a0.50005 0.50005 0 1 0-1 0s4.4e-5 1.0912-0.78516 2.2129c-0.68535 0.97907-2.1808 1.862-4.7402 2.1035 1.4315-2.1056 2.0683-3.9692 1.7988-5.4961-0.2186-1.2387-0.89653-2.2402-1.7734-3.0469v-1.7734h-2.7988c-2.533-1.1514-5.1348-1.4961-5.1348-1.4961a0.50005 0.50005 0 0 0-0.048828-0.0058594z" fill="currentColor"/>
</svg>
